Numix/16/status/indicator-keyboard-Uk.svg

<?xml version="1.0" encoding="UTF-8" standalone="no"?>
<svg
   xmlns:dc="http://purl.org/dc/elements/1.1/"
   xmlns:cc="http://creativecommons.org/ns#"
   xmlns:rdf="http://www.w3.org/1999/02/22-rdf-syntax-ns#"
   xmlns:svg="http://www.w3.org/2000/svg"
   xmlns="http://www.w3.org/2000/svg"
   xmlns:sodipodi="http://sodipodi.sourceforge.net/DTD/sodipodi-0.dtd"
   xmlns:inkscape="http://www.inkscape.org/namespaces/inkscape"
   viewBox="0 0 16 16"
   id="svg2"
   version="1.1"
   inkscape:version="0.91 r13725"
   sodipodi:docname="indicator-keyboard-Uk.svg">
  <metadata
     id="metadata13">
    <rdf:RDF>
      <cc:Work
         rdf:about="">
        <dc:format>image/svg+xml</dc:format>
        <dc:type
           rdf:resource="http://purl.org/dc/dcmitype/StillImage" />
      </cc:Work>
    </rdf:RDF>
  </metadata>
  <defs
     id="defs11" />
  <sodipodi:namedview
     pagecolor="#ffffff"
     bordercolor="#666666"
     borderopacity="1"
     objecttolerance="10"
     gridtolerance="10"
     guidetolerance="10"
     inkscape:pageopacity="0"
     inkscape:pageshadow="2"
     inkscape:window-width="640"
     inkscape:window-height="480"
     id="namedview9"
     showgrid="false"
     inkscape:zoom="14.75"
     inkscape:cx="8"
     inkscape:cy="8"
     inkscape:window-x="65"
     inkscape:window-y="24"
     inkscape:window-maximized="0"
     inkscape:current-layer="svg2" />
  <path
     style="fill:#ececec;fill-opacity:1"
     d="M 1.5996094 0 C 0.71320937 2.9605947e-16 0 0.71320937 0 1.5996094 L 0 14.400391 C 2.9605947e-16 15.286791 0.71320937 16 1.5996094 16 L 14.400391 16 C 15.286791 16 16 15.286791 16 14.400391 L 16 1.5996094 C 16 0.71320937 15.286791 0 14.400391 0 L 1.5996094 0 z M 9.8789062 4.4414062 L 9.8789062 8.8691406 C 10.028907 8.7251406 10.196812 8.5590469 10.382812 8.3730469 C 10.568812 8.1870469 10.755406 7.9986406 10.941406 7.8066406 C 11.133406 7.6146406 11.314422 7.4280469 11.482422 7.2480469 C 11.650422 7.0680469 11.794062 6.9094844 11.914062 6.7714844 L 12.615234 6.7714844 C 12.477234 6.9154844 12.322437 7.0778125 12.148438 7.2578125 C 11.974437 7.4378125 11.789656 7.6262187 11.597656 7.8242188 C 11.411656 8.0162188 11.227016 8.204625 11.041016 8.390625 L 10.537109 8.8945312 C 10.723109 9.0205312 10.920859 9.1828594 11.130859 9.3808594 C 11.346859 9.5788594 11.555766 9.7952972 11.759766 10.029297 C 11.969766 10.257297 12.165703 10.494234 12.345703 10.740234 C 12.531703 10.980234 12.688453 11.207828 12.814453 11.423828 L 12.121094 11.423828 C 11.977094 11.183828 11.811 10.950656 11.625 10.722656 C 11.445 10.488656 11.252828 10.270406 11.048828 10.066406 C 10.850828 9.8624066 10.651266 9.6758125 10.447266 9.5078125 C 10.249266 9.3398125 10.058907 9.1979844 9.8789062 9.0839844 L 9.8789062 11.423828 L 9.2949219 11.423828 L 9.2949219 4.5488281 L 9.8789062 4.4414062 z M 3.1855469 5.1875 L 3.7988281 5.1875 L 3.7988281 9.03125 C 3.7988281 9.37325 3.8380156 9.669875 3.9160156 9.921875 C 4.0000156 10.167875 4.1138125 10.371203 4.2578125 10.533203 C 4.4018125 10.695203 4.5752969 10.814578 4.7792969 10.892578 C 4.9832969 10.970578 5.2108906 11.009766 5.4628906 11.009766 C 5.7148906 11.009766 5.9424844 10.970578 6.1464844 10.892578 C 6.3504844 10.814578 6.5259219 10.695203 6.6699219 10.533203 C 6.8139219 10.371203 6.9239531 10.167875 7.0019531 9.921875 C 7.0859531 9.669875 7.1289062 9.37325 7.1289062 9.03125 L 7.1289062 5.1875 L 7.7402344 5.1875 L 7.7402344 9.1113281 C 7.7402344 9.4533281 7.6992344 9.7742191 7.6152344 10.074219 C 7.5372344 10.368219 7.4065625 10.625656 7.2265625 10.847656 C 7.0465625 11.069656 6.809625 11.245094 6.515625 11.371094 C 6.227625 11.497094 5.8768906 11.558594 5.4628906 11.558594 C 5.0488906 11.558594 4.6963437 11.497094 4.4023438 11.371094 C 4.1143437 11.245094 3.8792188 11.069656 3.6992188 10.847656 C 3.5192187 10.625656 3.3867344 10.368219 3.3027344 10.074219 C 3.2247344 9.7742191 3.1855469 9.4533281 3.1855469 9.1113281 L 3.1855469 5.1875 z "
     id="path4" />
</svg>

<svg xmlns="http://www.w3.org/2000/svg" viewBox="0 0 16 16">
 <path d="m 1.6 0 c -0.886 0 -1.6 0.713 -1.6 1.6 l 0 12.801 c 0 0.886 0.713 1.6 1.6 1.6 l 12.801 0 c 0.886 0 1.6 -0.713 1.6 -1.6 l 0 -12.801 c 0 -0.886 -0.713 -1.6 -1.6 -1.6 l -12.801 0 z m 8.279 4.441 l 0 4.428 c 0.15 -0.144 0.318 -0.31 0.504 -0.496 c 0.186 -0.186 0.373 -0.374 0.559 -0.566 c 0.192 -0.192 0.373 -0.379 0.541 -0.559 c 0.168 -0.18 0.312 -0.339 0.432 -0.477 l 0.701 0 c -0.138 0.144 -0.293 0.306 -0.467 0.486 c -0.174 0.18 -0.359 0.368 -0.551 0.566 c -0.186 0.192 -0.371 0.38 -0.557 0.566 l -0.504 0.504 c 0.186 0.126 0.384 0.288 0.594 0.486 c 0.216 0.198 0.425 0.414 0.629 0.648 c 0.21 0.228 0.406 0.465 0.586 0.711 c 0.186 0.24 0.343 0.468 0.469 0.684 l -0.693 0 c -0.144 -0.24 -0.31 -0.473 -0.496 -0.701 c -0.18 -0.234 -0.372 -0.452 -0.576 -0.656 c -0.198 -0.204 -0.398 -0.391 -0.602 -0.559 c -0.198 -0.168 -0.388 -0.31 -0.568 -0.424 l 0 2.34 l -0.584 0 l 0 -6.875 l 0.584 -0.107 z m -6.693 0.746 l 0.613 0 l 0 3.844 c 0 0.342 0.039 0.639 0.117 0.891 c 0.084 0.246 0.198 0.449 0.342 0.611 c 0.144 0.162 0.317 0.281 0.521 0.359 c 0.204 0.078 0.432 0.117 0.684 0.117 c 0.252 0 0.48 -0.039 0.684 -0.117 c 0.204 -0.078 0.379 -0.197 0.523 -0.359 c 0.144 -0.162 0.254 -0.365 0.332 -0.611 c 0.084 -0.252 0.127 -0.549 0.127 -0.891 l 0 -3.844 l 0.611 0 l 0 3.924 c 0 0.342 -0.041 0.663 -0.125 0.963 c -0.078 0.294 -0.209 0.551 -0.389 0.773 c -0.18 0.222 -0.417 0.397 -0.711 0.523 c -0.288 0.126 -0.639 0.188 -1.053 0.188 c -0.414 0 -0.767 -0.061 -1.061 -0.188 c -0.288 -0.126 -0.523 -0.301 -0.703 -0.523 c -0.18 -0.222 -0.312 -0.479 -0.396 -0.773 c -0.078 -0.3 -0.117 -0.621 -0.117 -0.963 l 0 -3.924 z" style="fill:#ececec;fill-opacity:1"/>
</svg>
